src/status/16/hexchat-indicator.svg

<svg width="16" viewBox="0 0 4.5155556 4.5155556" xmlns="http://www.w3.org/2000/svg" height="16">
 <path d="M 4.498047 0.996094 A 1.0001 1.0001 0 0 0 3.632813 1.494141 L 0.139 7.494 A 1.0001 1.0001 0 0 0 0.130859 8.492188 L 3.551 14.492 A 1.0001 1.0001 0 0 0 4.416016 14.996094 L 11.502 14.996 A 1.0001 1.0001 0 0 0 12.367188 14.505859 L 15.861 8.506 A 1.0001 1.0001 0 0 0 15.861328 7.494141 L 12.367 1.494 A 1.0001 1.0001 0 0 0 11.501953 0.996094 L 4.498 0.996 z M 5.08 2.996 L 10.928 2.996 L 11.301 3.639 L 8 6.939 L 4.703 3.643 L 5.08 2.996 z M 12.08 4.979 L 13.842 8 L 12.08 11.02 L 9.06 8 L 12.08 4.979 z M 3.92 4.98 L 6.939 8 L 3.887 11.05 L 2.152 8.01 L 3.92 4.98 z M 8 9.06 L 11.299 12.359 L 10.928 12.996 L 4.996 12.996 L 4.658 12.402 L 8 9.06 z" style="visibility:visible;shape-rendering:auto;color-interpolation-filters:linearRGB;fill:#2e3440;opacity:1;image-rendering:auto;fill-opacity:1;text-rendering:auto;stroke:none;display:inline;color:#000;fill-rule:evenodd;color-rendering:auto;color-interpolation:sRGB" transform="matrix(0.28222 0 0 0.28222 0 0)"/>
</svg>

<svg width="16" height="16" viewBox="0 0 4.5156 4.5156" xmlns="http://www.w3.org/2000/svg">
 <path transform="scale(.28222)" d="m4.498 0.99609a1.0001 1.0001 0 0 0-0.86523 0.49805l-3.4938 5.9999a1.0001 1.0001 0 0 0-0.008141 0.99819l3.4201 5.9998a1.0001 1.0001 0 0 0 0.86502 0.50409l7.086-9.4e-5a1.0001 1.0001 0 0 0 0.86519-0.49014l3.4938-5.9999a1.0001 1.0001 0 0 0 3.28e-4 -1.0119l-3.4943-6.0001a1.0001 1.0001 0 0 0-0.86505-0.49791l-7.004-9.4e-5zm0.58195 1.9999h5.848l0.373 0.643-3.301 3.3-3.297-3.296 0.377-0.647zm7 1.983 1.762 3.021-1.762 3.02-3.02-3.02 3.02-3.021zm-8.16 1e-3 3.019 3.02-3.052 3.05-1.735-3.04 1.768-3.03zm4.08 4.08 3.299 3.299-0.371 0.637h-5.932l-0.338-0.594 3.342-3.342z" color-rendering="auto" fill="#2e3440" fill-rule="evenodd" image-rendering="auto" shape-rendering="auto"/>
</svg>
